X: 8021
T: Connemara Stockings, The
R: reel
M: 4/4
K: Gmajor
g2fg edBA|G2BG AGED|GABd eaag|1 fdef gbaf:|2 fdef g2ef||
gbef gbeg|f2df f2df|gbef gfeg|fedf e3f|
ebba b2ag|faag afdf|~g3g faaf|edef gfef||

